docs/.gitbook/assets/icon-maximize-16@light.svg

<svg width="32" height="32" viewBox="0 0 16 16" fill="none" xmlns="http://www.w3.org/2000/svg">
<rect x="0" y="0" width="16" height="16" fill="#fff"/>
<path fill-rule="evenodd" clip-rule="evenodd" d="M3.75 2.5C3.05964 2.5 2.5 3.05964 2.5 3.75V5.25C2.5 5.66421 2.16421 6 1.75 6C1.33579 6 1 5.66421 1 5.25V3.75C1 2.23122 2.23122 1 3.75 1H5.25C5.66421 1 6 1.33579 6 1.75C6 2.16421 5.66421 2.5 5.25 2.5H3.75ZM10 1.75C10 1.33579 10.3358 1 10.75 1H12.25C13.7688 1 15 2.23122 15 3.75V5.25C15 5.66421 14.6642 6 14.25 6C13.8358 6 13.5 5.66421 13.5 5.25V3.75C13.5 3.05964 12.9404 2.5 12.25 2.5H10.75C10.3358 2.5 10 2.16421 10 1.75ZM1.75 10C2.16421 10 2.5 10.3358 2.5 10.75V12.25C2.5 12.9404 3.05964 13.5 3.75 13.5H5.25C5.66421 13.5 6 13.8358 6 14.25C6 14.6642 5.66421 15 5.25 15H3.75C2.23122 15 1 13.7688 1 12.25V10.75C1 10.3358 1.33579 10 1.75 10ZM14.25 10C14.6642 10 15 10.3358 15 10.75V12.25C15 13.7688 13.7688 15 12.25 15H10.75C10.3358 15 10 14.6642 10 14.25C10 13.8358 10.3358 13.5 10.75 13.5H12.25C12.9404 13.5 13.5 12.9404 13.5 12.25V10.75C13.5 10.3358 13.8358 10 14.25 10Z" fill="#000"/>
</svg>

<svg xmlns="http://www.w3.org/2000/svg" width="32" height="32" fill="none" viewBox="0 0 16 16"><path fill="#fff" d="M0 0h16v16H0z"/><path fill="#000" fill-rule="evenodd" d="M3.75 2.5c-.69 0-1.25.56-1.25 1.25v1.5a.75.75 0 0 1-1.5 0v-1.5A2.75 2.75 0 0 1 3.75 1h1.5a.75.75 0 0 1 0 1.5zM10 1.75a.75.75 0 0 1 .75-.75h1.5A2.75 2.75 0 0 1 15 3.75v1.5a.75.75 0 0 1-1.5 0v-1.5c0-.69-.56-1.25-1.25-1.25h-1.5a.75.75 0 0 1-.75-.75M1.75 10a.75.75 0 0 1 .75.75v1.5c0 .69.56 1.25 1.25 1.25h1.5a.75.75 0 0 1 0 1.5h-1.5A2.75 2.75 0 0 1 1 12.25v-1.5a.75.75 0 0 1 .75-.75m12.5 0a.75.75 0 0 1 .75.75v1.5A2.75 2.75 0 0 1 12.25 15h-1.5a.75.75 0 0 1 0-1.5h1.5c.69 0 1.25-.56 1.25-1.25v-1.5a.75.75 0 0 1 .75-.75" clip-rule="evenodd"/></svg>
